symbols/web/dynamic_feed/materialsymbolssharp/dynamic_feed_grad200_48px.svg

<svg xmlns="http://www.w3.org/2000/svg" height="48" width="48"><path d="M9.7 36.25v-22.1h3.65V32.6H36v3.65Zm6.65-6.65V5.05H45V29.6ZM20 25.95h21.35v-14.8H20ZM3.05 42.9V20.15H6.7v19.1h23.25v3.65Z"/></svg>

<svg xmlns="http://www.w3.org/2000/svg" height="48" width="48"><path d="M9.7 36.25V14.15H13.35V32.6H36V36.25ZM16.35 29.6V5.05H45V29.6ZM20 25.95H41.35V11.15H20ZM3.05 42.9V20.15H6.7V39.25H29.95V42.9Z"/></svg>
